; generated by PrusaSlicer 2.4.1+x64 on 2022-03-19 at 14:25:11 UTC

; 

; external perimeters extrusion width = 0.60mm
; perimeters extrusion width = 0.50mm
; infill extrusion width = 0.50mm
; solid infill extrusion width = 0.50mm
; top infill extrusion width = 0.45mm
; first layer extrusion width = 0.42mm

M73 P0 R219
M73 Q0 S220
M201 X1000 Y1000 Z200 E5000 ; sets maximum accelerations, mm/sec^2
M203 X200 Y200 Z12 E120 ; sets maximum feedrates, mm / sec
M204 P1250 R1250 T1250 ; sets acceleration (P, T) and retract acceleration (R), mm/sec^2
M205 X8.00 Y8.00 Z0.40 E4.50 ; sets the jerk limits, mm/sec
M205 S0 T0 ; sets the minimum extruding and travel feed rate, mm/sec
M107
;TYPE:Custom
M862.3 P "MK3S" ; printer model check
M862.1 P0.4 ; nozzle diameter check
M115 U3.10.1 ; tell printer latest fw version
G90 ; use absolute coordinates
M83 ; extruder relative mode
M104 S215 ; set extruder temp
M140 S60 ; set bed temp
M190 S60 ; wait for bed temp
M109 S215 ; wait for extruder temp
G28 W ; home all without mesh bed level
G80 ; mesh bed leveling
G1 Z0.2 F720
G1 Y-3 F1000 ; go outside print area
G92 E0
G1 X60 E9 F1000 ; intro line
G1 X100 E12.5 F1000 ; intro line
G92 E0
M221 S95

; Don't change E values below. Excessive value can damage the printer.

M907 E538 ; set extruder motor current
G21 ; set units to millimeters
G90 ; use absolute coordinates
M83 ; use relative distances for extrusion
M900 K0.05 ; Filament gcode LA 1.5
M900 K30 ; Filament gcode LA 1.0
M107
;LAYER_CHANGE
;Z:0.2
;HEIGHT:0.2
;BEFORE_LAYER_CHANGE
G92 E0.0
;0.2


G1 E-.8 F2100
G1 Z.4 F720
;AFTER_LAYER_CHANGE
;0.2
G1 X82.015 Y59.193 F10800
G1 Z.2 F720
G1 E.8 F2100
M204 S800
;TYPE:Skirt/Brim
;WIDTH:0.42
G1 F1200
G1 X83.06 Y58.317 E.04278
G1 X84 Y58.123 E.03008
G1 X166 Y58.123 E2.57105
G1 X167.307 Y58.515 E.04278
G1 X168.183 Y59.56 E.04278
G1 X168.377 Y60.5 E.03008
G1 X168.377 Y149.5 E2.79053
G1 X167.985 Y150.807 E.04278
G1 X166.94 Y151.683 E.04278
G1 X166 Y151.877 E.03008
G1 X84 Y151.877 E2.57105
G1 X82.693 Y151.485 E.04278
G1 X81.817 Y150.44 E.04278
G1 X81.623 Y149.5 E.03008
G1 X81.623 Y60.5 E2.79053
G1 X81.997 Y59.25 E.0409
M204 S1000
; printing object phone-organizer.stl id:0 copy 0
;WIPE_START
G1 F8640
G1 X83.06 Y58.317 E-.32671
G1 X84 Y58.123 E-.22155
G1 X84.917 Y58.123 E-.21174
;WIPE_END
G1 E-.04 F2100
G1 Z.6 F720
G1 X84.787 Y61.287 F10800
G1 Z.2 F720
G1 E.8 F2100
M204 S800
;TYPE:Perimeter
G1 F1200
G1 X165.213 Y61.287 E2.5217
G1 X165.213 Y148.713 E2.74118
G1 X84.787 Y148.713 E2.5217
G1 X84.787 Y61.347 E2.73929
M204 S1000
M73 Q0 S219
G1 X84.41 Y60.91 F10800
M204 S800
;TYPE:External perimeter
G1 F1200
G1 X165.59 Y60.91 E2.54534
G1 X165.59 Y149.09 E2.76482
G1 X84.41 Y149.09 E2.54534
G1 X84.41 Y60.97 E2.76294
M204 S1000
M73 P0 R218
G1 X84.795 Y61.019 F10800
;WIPE_START
G1 F8640
G1 X87.701 Y60.968 E-.76
;WIPE_END
G1 E-.04 F2100
G1 Z.6 F720
G1 X164.337 Y61.4 F10800
G1 Z.2 F720
G1 E.8 F2100
M204 S800
;TYPE:Solid infill
;WIDTH:0.420061
G1 F1200
G1 X164.93 Y61.993 E.02629
G1 X164.93 Y62.526 E.01673
G1 X163.974 Y61.57 E.04241
G1 X163.44 Y61.57 E.01673
G1 X164.93 Y63.06 E.06607
G1 X164.93 Y63.593 E.01673
G1 X162.907 Y61.57 E.08972
G1 X162.374 Y61.57 E.01673
G1 X164.93 Y64.126 E.11338
G1 X164.93 Y64.66 E.01673
G1 X161.84 Y61.57 E.13703
G1 X161.307 Y61.57 E.01673
G1 X164.93 Y65.193 E.16068
G1 X164.93 Y65.726 E.01673
G1 X160.774 Y61.57 E.18434
G1 X160.24 Y61.57 E.01673
G1 X164.93 Y66.26 E.20799
G1 X164.93 Y66.793 E.01673
G1 X159.707 Y61.57 E.23165
G1 X159.174 Y61.57 E.01673
G1 X164.93 Y67.326 E.2553
G1 X164.93 Y67.86 E.01673
G1 X158.64 Y61.57 E.27895
G1 X158.107 Y61.57 E.01673
G1 X164.93 Y68.393 E.30261
G1 X164.93 Y68.927 E.01673
G1 X157.573 Y61.57 E.32626
G1 X157.04 Y61.57 E.01673
G1 X164.93 Y69.46 E.34991
G1 X164.93 Y69.993 E.01673
G1 X156.507 Y61.57 E.37357
G1 X155.973 Y61.57 E.01673
G1 X164.93 Y70.527 E.39722
G1 X164.93 Y71.06 E.01673
G1 X155.44 Y61.57 E.42088
G1 X154.907 Y61.57 E.01673
G1 X164.93 Y71.593 E.44453
G1 X164.93 Y72.127 E.01673
G1 X154.373 Y61.57 E.46818
G1 X153.84 Y61.57 E.01673
G1 X164.93 Y72.66 E.49184
G1 X164.93 Y73.193 E.01673
G1 X153.307 Y61.57 E.51549
G1 X152.773 Y61.57 E.01673
G1 X164.93 Y73.727 E.53915
G1 X164.93 Y74.26 E.01673
G1 X152.24 Y61.57 E.5628
G1 X151.707 Y61.57 E.01673
G1 X164.93 Y74.793 E.58645
G1 X164.93 Y75.327 E.01673
G1 X151.173 Y61.57 E.61011
G1 X150.64 Y61.57 E.01673
G1 X164.93 Y75.86 E.63376
G1 X164.93 Y76.394 E.01673
G1 X150.106 Y61.57 E.65741
G1 X149.573 Y61.57 E.01673
G1 X164.93 Y76.927 E.68107
G1 X164.93 Y77.46 E.01673
G1 X149.04 Y61.57 E.70472
G1 X148.506 Y61.57 E.01673
G1 X164.93 Y77.994 E.72838
G1 X164.93 Y78.527 E.01673
G1 X147.973 Y61.57 E.75203
G1 X147.44 Y61.57 E.01673
G1 X164.93 Y79.06 E.77568
G1 X164.93 Y79.594 E.01673
G1 X146.906 Y61.57 E.79934
G1 X146.373 Y61.57 E.01673
G1 X164.93 Y80.127 E.82299
G1 X164.93 Y80.66 E.01673
G1 X145.84 Y61.57 E.84665
G1 X145.306 Y61.57 E.01673
G1 X164.93 Y81.194 E.8703
G1 X164.93 Y81.727 E.01673
G1 X144.773 Y61.57 E.89395
G1 X144.239 Y61.57 E.01673
G1 X164.93 Y82.261 E.91761
G1 X164.93 Y82.794 E.01673
G1 X143.706 Y61.57 E.94126
G1 X143.173 Y61.57 E.01673
G1 X164.93 Y83.327 E.96491
G1 X164.93 Y83.861 E.01673
G1 X142.639 Y61.57 E.98857
G1 X142.106 Y61.57 E.01673
G1 X164.93 Y84.394 E1.01222
G1 X164.93 Y84.927 E.01673
M73 Q0 S218
G1 X141.573 Y61.57 E1.03588
G1 X141.039 Y61.57 E.01673
G1 X164.93 Y85.461 E1.05953
G1 X164.93 Y85.994 E.01673
G1 X140.506 Y61.57 E1.08318
G1 X139.973 Y61.57 E.01673
G1 X164.93 Y86.527 E1.10684
G1 X164.93 Y87.061 E.01673
G1 X139.439 Y61.57 E1.13049
G1 X138.906 Y61.57 E.01673
G1 X164.93 Y87.594 E1.15414
G1 X164.93 Y88.127 E.01673
G1 X138.373 Y61.57 E1.1778
G1 X137.839 Y61.57 E.01673
G1 X164.93 Y88.661 E1.20145
G1 X164.93 Y89.194 E.01673
G1 X137.306 Y61.57 E1.22511
G1 X136.772 Y61.57 E.01673
M73 P0 R217
G1 X164.93 Y89.728 E1.24876
G1 X164.93 Y90.261 E.01673
G1 X136.239 Y61.57 E1.27241
G1 X135.706 Y61.57 E.01673
G1 X164.93 Y90.794 E1.29607
G1 X164.93 Y91.328 E.01673
G1 X135.172 Y61.57 E1.31972
G1 X134.639 Y61.57 E.01673
G1 X164.93 Y91.861 E1.34338
G1 X164.93 Y92.394 E.01673
G1 X134.106 Y61.57 E1.36703
G1 X133.572 Y61.57 E.01673
G1 X164.93 Y92.928 E1.39068
G1 X164.93 Y93.461 E.01673
G1 X133.039 Y61.57 E1.41434
G1 X132.506 Y61.57 E.01673
G1 X164.93 Y93.994 E1.43799
G1 X164.93 Y94.528 E.01673
M73 P1 R217
M73 Q1 S218
G1 X131.972 Y61.57 E1.46164
G1 X131.439 Y61.57 E.01673
G1 X164.93 Y95.061 E1.4853
G1 X164.93 Y95.594 E.01673
G1 X130.906 Y61.57 E1.50895
G1 X130.372 Y61.57 E.01673
G1 X164.93 Y96.128 E1.53261
G1 X164.93 Y96.661 E.01673
G1 X129.839 Y61.57 E1.55626
G1 X129.305 Y61.57 E.01673
G1 X164.93 Y97.195 E1.57991
G1 X164.93 Y97.728 E.01673
G1 X128.772 Y61.57 E1.60357
G1 X128.239 Y61.57 E.01673
G1 X164.93 Y98.261 E1.62722
G1 X164.93 Y98.795 E.01673
G1 X127.705 Y61.57 E1.65088
G1 X127.172 Y61.57 E.01673
G1 X164.93 Y99.328 E1.67453
G1 X164.93 Y99.861 E.01673
M73 Q1 S217
G1 X126.639 Y61.57 E1.69818
G1 X126.105 Y61.57 E.01673
G1 X164.93 Y100.395 E1.72184
G1 X164.93 Y100.928 E.01673
G1 X125.572 Y61.57 E1.74549
G1 X125.039 Y61.57 E.01673
G1 X164.93 Y101.461 E1.76914
G1 X164.93 Y101.995 E.01673
G1 X124.505 Y61.57 E1.7928
G1 X123.972 Y61.57 E.01673
G1 X164.93 Y102.528 E1.81645
G1 X164.93 Y103.061 E.01673
M73 P1 R216
G1 X123.439 Y61.57 E1.84011
G1 X122.905 Y61.57 E.01673
G1 X164.93 Y103.595 E1.86376
G1 X164.93 Y104.128 E.01673
G1 X122.372 Y61.57 E1.88741
G1 X121.838 Y61.57 E.01673
G1 X164.93 Y104.662 E1.91107
G1 X164.93 Y105.195 E.01673
G1 X121.305 Y61.57 E1.93472
G1 X120.772 Y61.57 E.01673
G1 X164.93 Y105.728 E1.95838
G1 X164.93 Y106.262 E.01673
G1 X120.238 Y61.57 E1.98203
G1 X119.705 Y61.57 E.01673
G1 X164.93 Y106.795 E2.00568
G1 X164.93 Y107.328 E.01673
G1 X119.172 Y61.57 E2.02934
G1 X118.638 Y61.57 E.01673
G1 X164.93 Y107.862 E2.05299
G1 X164.93 Y108.395 E.01673
G1 X118.105 Y61.57 E2.07664
G1 X117.572 Y61.57 E.01673
G1 X164.93 Y108.928 E2.1003
G1 X164.93 Y109.462 E.01673
G1 X117.038 Y61.57 E2.12395
G1 X116.505 Y61.57 E.01673
M73 Q1 S216
G1 X164.93 Y109.995 E2.14761
G1 X164.93 Y110.528 E.01673
G1 X115.972 Y61.57 E2.17126
G1 X115.438 Y61.57 E.01673
G1 X164.93 Y111.062 E2.19491
G1 X164.93 Y111.595 E.01673
G1 X114.905 Y61.57 E2.21857
G1 X114.371 Y61.57 E.01673
G1 X164.93 Y112.129 E2.24222
G1 X164.93 Y112.662 E.01673
M73 P1 R215
G1 X113.838 Y61.57 E2.26588
G1 X113.305 Y61.57 E.01673
G1 X164.93 Y113.195 E2.28953
G1 X164.93 Y113.729 E.01673
G1 X112.771 Y61.57 E2.31318
G1 X112.238 Y61.57 E.01673
G1 X164.93 Y114.262 E2.33684
G1 X164.93 Y114.795 E.01673
G1 X111.705 Y61.57 E2.36049
G1 X111.171 Y61.57 E.01673
G1 X164.93 Y115.329 E2.38414
G1 X164.93 Y115.862 E.01673
G1 X110.638 Y61.57 E2.4078
G1 X110.105 Y61.57 E.01673
G1 X164.93 Y116.395 E2.43145
G1 X164.93 Y116.929 E.01673
M73 P2 R215
M73 Q2 S216
G1 X109.571 Y61.57 E2.45511
G1 X109.038 Y61.57 E.01673
G1 X164.93 Y117.462 E2.47876
G1 X164.93 Y117.995 E.01673
G1 X108.505 Y61.57 E2.50241
G1 X107.971 Y61.57 E.01673
M73 Q2 S215
G1 X164.93 Y118.529 E2.52607
G1 X164.93 Y119.062 E.01673
G1 X107.438 Y61.57 E2.54972
G1 X106.904 Y61.57 E.01673
G1 X164.93 Y119.596 E2.57337
G1 X164.93 Y120.129 E.01673
G1 X106.371 Y61.57 E2.59703
G1 X105.838 Y61.57 E.01673
M73 P2 R214
G1 X164.93 Y120.662 E2.62068
G1 X164.93 Y121.196 E.01673
G1 X105.304 Y61.57 E2.64434
G1 X104.771 Y61.57 E.01673
G1 X164.93 Y121.729 E2.66799
G1 X164.93 Y122.262 E.01673
G1 X104.238 Y61.57 E2.69164
G1 X103.704 Y61.57 E.01673
G1 X164.93 Y122.796 E2.7153
G1 X164.93 Y123.329 E.01673
G1 X103.171 Y61.57 E2.73895
G1 X102.638 Y61.57 E.01673
G1 X164.93 Y123.862 E2.76261
G1 X164.93 Y124.396 E.01673
G1 X102.104 Y61.57 E2.78626
G1 X101.571 Y61.57 E.01673
G1 X164.93 Y124.929 E2.80991
G1 X164.93 Y125.462 E.01673
G1 X101.038 Y61.57 E2.83357
G1 X100.504 Y61.57 E.01673
M73 Q2 S214
G1 X164.93 Y125.996 E2.85722
G1 X164.93 Y126.529 E.01673
G1 X99.971 Y61.57 E2.88087
G1 X99.437 Y61.57 E.01673
G1 X164.93 Y127.063 E2.90453
G1 X164.93 Y127.596 E.01673
G1 X98.904 Y61.57 E2.92818
G1 X98.371 Y61.57 E.01673
M73 P2 R213
G1 X164.93 Y128.129 E2.95184
G1 X164.93 Y128.663 E.01673
G1 X97.837 Y61.57 E2.97549
G1 X97.304 Y61.57 E.01673
G1 X164.93 Y129.196 E2.99914
G1 X164.93 Y129.729 E.01673
G1 X96.771 Y61.57 E3.0228
G1 X96.237 Y61.57 E.01673
G1 X164.93 Y130.263 E3.04645
G1 X164.93 Y130.796 E.01673
G1 X95.704 Y61.57 E3.07011
G1 X95.171 Y61.57 E.01673
G1 X164.93 Y131.329 E3.09376
G1 X164.93 Y131.863 E.01673
G1 X94.637 Y61.57 E3.11741
G1 X94.104 Y61.57 E.01673
G1 X164.93 Y132.396 E3.14107
G1 X164.93 Y132.93 E.01673
M73 P3 R213
M73 Q3 S213
G1 X93.57 Y61.57 E3.16472
G1 X93.037 Y61.57 E.01673
G1 X164.93 Y133.463 E3.18837
G1 X164.93 Y133.996 E.01673
G1 X92.504 Y61.57 E3.21203
G1 X91.97 Y61.57 E.01673
M73 P3 R212
G1 X164.93 Y134.53 E3.23568
G1 X164.93 Y135.063 E.01673
G1 X91.437 Y61.57 E3.25934
G1 X90.904 Y61.57 E.01673
G1 X164.93 Y135.596 E3.28299
G1 X164.93 Y136.13 E.01673
G1 X90.37 Y61.57 E3.30664
G1 X89.837 Y61.57 E.01673
G1 X164.93 Y136.663 E3.3303
G1 X164.93 Y137.196 E.01673
G1 X89.304 Y61.57 E3.35395
G1 X88.77 Y61.57 E.01673
G1 X164.93 Y137.73 E3.37761
G1 X164.93 Y138.263 E.01673
G1 X88.237 Y61.57 E3.40126
G1 X87.704 Y61.57 E.01673
M73 Q3 S212
G1 X164.93 Y138.796 E3.42491
G1 X164.93 Y139.33 E.01673
G1 X87.17 Y61.57 E3.44857
G1 X86.637 Y61.57 E.01673
G1 X164.93 Y139.863 E3.47222
G1 X164.93 Y140.397 E.01673
M73 P3 R211
G1 X86.103 Y61.57 E3.49587
G1 X85.57 Y61.57 E.01673
G1 X164.93 Y140.93 E3.51953
G1 X164.93 Y141.463 E.01673
G1 X85.07 Y61.603 E3.54171
G1 X85.07 Y62.136 E.01673
G1 X164.93 Y141.997 E3.54171
G1 X164.93 Y142.53 E.01673
G1 X85.07 Y62.67 E3.54171
G1 X85.07 Y63.203 E.01673
G1 X164.93 Y143.063 E3.54171
G1 X164.93 Y143.597 E.01673
G1 X85.07 Y63.736 E3.54171
G1 X85.07 Y64.27 E.01673
G1 X164.93 Y144.13 E3.54171
G1 X164.93 Y144.663 E.01673
M73 Q3 S211
G1 X85.07 Y64.803 E3.54171
G1 X85.07 Y65.336 E.01673
G1 X164.93 Y145.197 E3.54171
G1 X164.93 Y145.73 E.01673
M73 P4 R211
M73 Q4 S211
G1 X85.07 Y65.87 E3.54171
G1 X85.07 Y66.403 E.01673
M73 P4 R210
G1 X164.93 Y146.263 E3.54171
G1 X164.93 Y146.797 E.01673
G1 X85.07 Y66.937 E3.54171
G1 X85.07 Y67.47 E.01673
G1 X164.93 Y147.33 E3.54171
G1 X164.93 Y147.864 E.01673
G1 X85.07 Y68.003 E3.54171
G1 X85.07 Y68.537 E.01673
G1 X164.93 Y148.397 E3.54171
G1 X164.93 Y148.43 E.00104
G1 X164.43 Y148.43 E.01568
G1 X85.07 Y69.07 E3.51953
G1 X85.07 Y69.603 E.01673
G1 X163.897 Y148.43 E3.49588
G1 X163.363 Y148.43 E.01673
M73 Q4 S210
G1 X85.07 Y70.137 E3.47223
G1 X85.07 Y70.67 E.01673
G1 X162.83 Y148.43 E3.44857
G1 X162.297 Y148.43 E.01673
G1 X85.07 Y71.203 E3.42492
G1 X85.07 Y71.737 E.01673
M73 P4 R209
G1 X161.763 Y148.43 E3.40126
G1 X161.23 Y148.43 E.01673
G1 X85.07 Y72.27 E3.37761
G1 X85.07 Y72.804 E.01673
G1 X160.696 Y148.43 E3.35396
G1 X160.163 Y148.43 E.01673
G1 X85.07 Y73.337 E3.3303
G1 X85.07 Y73.87 E.01673
G1 X159.63 Y148.43 E3.30665
G1 X159.096 Y148.43 E.01673
G1 X85.07 Y74.404 E3.283
G1 X85.07 Y74.937 E.01673
G1 X158.563 Y148.43 E3.25934
G1 X158.03 Y148.43 E.01673
G1 X85.07 Y75.47 E3.23569
G1 X85.07 Y76.004 E.01673
G1 X157.496 Y148.43 E3.21203
G1 X156.963 Y148.43 E.01673
M73 Q4 S209
G1 X85.07 Y76.537 E3.18838
G1 X85.07 Y77.07 E.01673
G1 X156.43 Y148.43 E3.16473
G1 X155.896 Y148.43 E.01673
G1 X85.07 Y77.604 E3.14107
G1 X85.07 Y78.137 E.01673
M73 P4 R208
G1 X155.363 Y148.43 E3.11742
G1 X154.83 Y148.43 E.01673
M73 P5 R208
M73 Q5 S209
G1 X85.07 Y78.67 E3.09376
G1 X85.07 Y79.204 E.01673
G1 X154.296 Y148.43 E3.07011
G1 X153.763 Y148.43 E.01673
G1 X85.07 Y79.737 E3.04646
G1 X85.07 Y80.271 E.01673
G1 X153.229 Y148.43 E3.0228
G1 X152.696 Y148.43 E.01673
G1 X85.07 Y80.804 E2.99915
G1 X85.07 Y81.337 E.01673
G1 X152.163 Y148.43 E2.9755
G1 X151.629 Y148.43 E.01673
G1 X85.07 Y81.871 E2.95184
G1 X85.07 Y82.404 E.01673
G1 X151.096 Y148.43 E2.92819
G1 X150.563 Y148.43 E.01673
M73 Q5 S208
G1 X85.07 Y82.937 E2.90453
G1 X85.07 Y83.471 E.01673
G1 X150.029 Y148.43 E2.88088
G1 X149.496 Y148.43 E.01673
G1 X85.07 Y84.004 E2.85723
G1 X85.07 Y84.537 E.01673
M73 P5 R207
G1 X148.963 Y148.43 E2.83357
G1 X148.429 Y148.43 E.01673
G1 X85.07 Y85.071 E2.80992
G1 X85.07 Y85.604 E.01673
G1 X147.896 Y148.43 E2.78626
G1 X147.363 Y148.43 E.01673
G1 X85.07 Y86.137 E2.76261
G1 X85.07 Y86.671 E.01673
G1 X146.829 Y148.43 E2.73896
G1 X146.296 Y148.43 E.01673
G1 X85.07 Y87.204 E2.7153
G1 X85.07 Y87.738 E.01673
G1 X145.762 Y148.43 E2.69165
G1 X145.229 Y148.43 E.01673
G1 X85.07 Y88.271 E2.668
G1 X85.07 Y88.804 E.01673
G1 X144.696 Y148.43 E2.64434
G1 X144.162 Y148.43 E.01673
G1 X85.07 Y89.338 E2.62069
G1 X85.07 Y89.871 E.01673
M73 Q5 S207
G1 X143.629 Y148.43 E2.59703
G1 X143.096 Y148.43 E.01673
G1 X85.07 Y90.404 E2.57338
G1 X85.07 Y90.938 E.01673
G1 X142.562 Y148.43 E2.54973
G1 X142.029 Y148.43 E.01673
G1 X85.07 Y91.471 E2.52607
G1 X85.07 Y92.004 E.01673
M73 P5 R206
G1 X141.496 Y148.43 E2.50242
G1 X140.962 Y148.43 E.01673
G1 X85.07 Y92.538 E2.47877
G1 X85.07 Y93.071 E.01673
G1 X140.429 Y148.43 E2.45511
G1 X139.896 Y148.43 E.01673
G1 X85.07 Y93.604 E2.43146
G1 X85.07 Y94.138 E.01673
G1 X139.362 Y148.43 E2.4078
G1 X138.829 Y148.43 E.01673
M73 P6 R206
M73 Q6 S207
G1 X85.07 Y94.671 E2.38415
G1 X85.07 Y95.205 E.01673
G1 X138.295 Y148.43 E2.3605
G1 X137.762 Y148.43 E.01673
G1 X85.07 Y95.738 E2.33684
G1 X85.07 Y96.271 E.01673
G1 X137.229 Y148.43 E2.31319
G1 X136.695 Y148.43 E.01673
G1 X85.07 Y96.805 E2.28953
G1 X85.07 Y97.338 E.01673
G1 X136.162 Y148.43 E2.26588
G1 X135.629 Y148.43 E.01673
M73 Q6 S206
G1 X85.07 Y97.871 E2.24223
G1 X85.07 Y98.405 E.01673
G1 X135.095 Y148.43 E2.21857
G1 X134.562 Y148.43 E.01673
G1 X85.07 Y98.938 E2.19492
G1 X85.07 Y99.471 E.01673
G1 X134.029 Y148.43 E2.17127
G1 X133.495 Y148.43 E.01673
G1 X85.07 Y100.005 E2.14761
G1 X85.07 Y100.538 E.01673
M73 P6 R205
G1 X132.962 Y148.43 E2.12396
G1 X132.429 Y148.43 E.01673
G1 X85.07 Y101.071 E2.1003
G1 X85.07 Y101.605 E.01673
G1 X131.895 Y148.43 E2.07665
G1 X131.362 Y148.43 E.01673
G1 X85.07 Y102.138 E2.053
G1 X85.07 Y102.672 E.01673
G1 X130.828 Y148.43 E2.02934
G1 X130.295 Y148.43 E.01673
G1 X85.07 Y103.205 E2.00569
G1 X85.07 Y103.738 E.01673
G1 X129.762 Y148.43 E1.98203
G1 X129.228 Y148.43 E.01673
G1 X85.07 Y104.272 E1.95838
